X: 1
T: The Stool Of Repentance
R: jig
M: 6/8
L: 1/8
K: Amaj
|:a2e c2e|agf e2c|aff f2e|fag f2e|
a2e c2e|agf e2c|d2e f2e|fac B2a:||
|:cAA eAA|cAA edc|dBB fBB|dBB fed|
cAA eAA|fag a2e|d2e f2e|fac B2a:||


Tune 1138	Setting 14404

